icons/mosquito_fill.svg

<svg width="48" height="48" viewBox="0 0 48 48" fill="none" xmlns="http://www.w3.org/2000/svg">
<path fill-rule="evenodd" clip-rule="evenodd" d="M24.0013 6C24.5536 6 25.0013 6.44772 25.0013 7V15.485C25.3187 15.8033 25.6115 16.2686 25.8696 16.8521L29.5 14.1629V11.3333C29.5 11.0597 29.6122 10.7979 29.8103 10.6092L33.3103 7.27586C33.7103 6.89498 34.3433 6.91041 34.7241 7.31034C35.105 7.71028 35.0896 8.34325 34.6897 8.72414L31.5 11.7619V14.6667C31.5 14.9835 31.3498 15.2816 31.0952 15.4702L26.5952 18.8036C26.5686 18.8233 26.5414 18.8414 26.5136 18.8581C26.8212 20.1926 27 21.7872 27 23.5C27 24.1423 26.9749 24.7679 26.9272 25.3694L32.9144 30.6642C33.1826 30.9015 33.3035 31.264 33.2314 31.6147L32.5121 35.1139L35.4259 36.4854C35.9256 36.7206 36.14 37.3163 35.9048 37.816C35.6696 38.3157 35.0738 38.5302 34.5741 38.295L30.9482 36.5883C30.5304 36.3916 30.3015 35.9345 30.3945 35.4821L31.1558 31.779L26.5989 27.7489C26.513 28.1696 26.4148 28.5676 26.3056 28.9387L28.4307 31.8197C28.6258 32.0843 28.6785 32.4278 28.5716 32.7386L27.3144 36.3932L29.9913 40.4492C30.2955 40.9101 30.1684 41.5304 29.7075 41.8346C29.2466 42.1388 28.6263 42.0118 28.3221 41.5508L25.374 37.0842C25.2031 36.8252 25.1621 36.5015 25.263 36.208L26.5096 32.5845L25.3787 31.0513C24.9659 31.6575 24.497 32 24 32C23.503 32 23.0341 31.6575 22.6213 31.0513L21.4904 32.5845L22.737 36.208C22.8379 36.5015 22.7969 36.8252 22.626 37.0842L19.678 41.5508C19.3737 42.0118 18.7534 42.1388 18.2925 41.8346C17.8316 41.5304 17.7045 40.9101 18.0087 40.4492L20.6856 36.3932L19.4284 32.7386C19.3215 32.4278 19.3742 32.0843 19.5693 31.8197L21.6944 28.9387C21.5852 28.5676 21.487 28.1696 21.4011 27.7489L16.8442 31.779L17.6055 35.4821C17.6985 35.9345 17.4696 36.3916 17.0518 36.5883L13.4259 38.295C12.9262 38.5302 12.3304 38.3157 12.0952 37.816C11.86 37.3163 12.0744 36.7206 12.5741 36.4854L15.4879 35.1139L14.7686 31.6147C14.6965 31.264 14.8174 30.9015 15.0856 30.6642L21.0728 25.3694C21.0251 24.7679 21 24.1423 21 23.5C21 21.7872 21.1788 20.1926 21.4864 18.8581C21.4586 18.8414 21.4314 18.8233 21.4048 18.8036L16.9048 15.4702C16.6502 15.2816 16.5 14.9835 16.5 14.6667V11.7619L13.3103 8.72414C12.9104 8.34325 12.895 7.71028 13.2759 7.31034C13.6567 6.91041 14.2897 6.89498 14.6897 7.27586L18.1897 10.6092C18.3878 10.7979 18.5 11.0597 18.5 11.3333V14.1629L22.1304 16.8521C22.3892 16.267 22.6829 15.8007 23.0013 15.4823V7C23.0013 6.44772 23.4491 6 24.0013 6ZM12.8773 25C9.92436 25 8.78146 24.2411 8.37416 23.788C8.35432 23.7659 8.33542 23.7436 8.31741 23.7213L18.3357 22.3758C18.197 22.6209 18.033 22.8625 17.8406 23.0927C17.0375 24.054 15.591 25 12.8773 25ZM6.10834 22C5.65708 23.6667 6.3791 27 12.8773 27C17.7601 27 19.8912 24.3651 20.6489 22.0651C20.8996 21.3042 21 20.58 21 20L6.10834 22ZM35.1227 25C38.0756 25 39.2185 24.2411 39.6258 23.788C39.6457 23.7659 39.6646 23.7436 39.6826 23.7213L29.6643 22.3758C29.803 22.6209 29.967 22.8625 30.1594 23.0927C30.9625 24.054 32.409 25 35.1227 25ZM41.8917 22C42.3429 23.6667 41.6209 27 35.1227 27C30.2399 27 28.1088 24.3651 27.3511 22.0651C27.1004 21.3042 27 20.58 27 20L41.8917 22Z" fill="black"/>
</svg>

<svg
  xmlns="http://www.w3.org/2000/svg"
  width="24"
  height="24"
  viewBox="0 0 24 24"
  fill="none"
  stroke="currentColor"
  stroke-width="2"
  stroke-linecap="round"
  stroke-linejoin="round"
>
  <path
    fill-rule="evenodd"
    d="M24.001 6a1 1 0 0 1 1 1v8.485c.318.318.61.784.869 1.367l3.63-2.69v-2.829a1 1 0 0 1 .31-.724l3.5-3.333a1 1 0 0 1 1.38 1.448l-3.19 3.038v2.905a1 1 0 0 1-.405.803l-4.5 3.334q-.04.03-.081.054c.307 1.335.486 2.93.486 4.642q0 .965-.073 1.87l5.987 5.294a1 1 0 0 1 .317.95l-.719 3.5 2.914 1.371a1 1 0 1 1-.852 1.81l-3.626-1.707a1 1 0 0 1-.553-1.106l.76-3.703-4.556-4.03q-.13.632-.293 1.19l2.125 2.88a1 1 0 0 1 .14.92l-1.257 3.654 2.677 4.056a1 1 0 0 1-1.669 1.102l-2.948-4.467a1 1 0 0 1-.111-.876l1.247-3.623-1.131-1.534c-.413.607-.882.949-1.379.949s-.966-.343-1.379-.949l-1.13 1.534 1.246 3.623a1 1 0 0 1-.111.876l-2.948 4.467a1 1 0 0 1-1.67-1.102l2.678-4.056-1.258-3.654a1 1 0 0 1 .141-.92l2.125-2.88q-.164-.558-.293-1.19l-4.557 4.03.761 3.703a1 1 0 0 1-.553 1.106l-3.626 1.707a1 1 0 0 1-.852-1.81l2.914-1.371-.72-3.5a1 1 0 0 1 .318-.95l5.987-5.295A24 24 0 0 1 21 23.5c0-1.713.179-3.307.486-4.642a1 1 0 0 1-.081-.054l-4.5-3.334a1 1 0 0 1-.405-.803v-2.905l-3.19-3.038a1 1 0 0 1 1.38-1.448l3.5 3.333a1 1 0 0 1 .31.724v2.83l3.63 2.69c.26-.586.553-1.052.871-1.37V7a1 1 0 0 1 1-1M12.877 25c-2.953 0-4.096-.759-4.503-1.212l-.057-.067 10.019-1.345a5 5 0 0 1-.495.717c-.803.961-2.25 1.907-4.964 1.907m-6.769-3c-.45 1.667.271 5 6.77 5 4.882 0 7.013-2.635 7.77-4.935C20.9 21.305 21 20.58 21 20zm29.015 3c2.953 0 4.096-.759 4.503-1.212q.03-.033.057-.067l-10.019-1.345q.208.369.495.717c.803.961 2.25 1.907 4.964 1.907m6.769-3c.45 1.667-.271 5-6.77 5-4.882 0-7.013-2.635-7.77-4.935A6.8 6.8 0 0 1 27 20z"
    clip-rule="evenodd"
  />
</svg>
